X:12365
T:Old Pigeon on the Gate, The
M:C|
L:1/8
R:reel
Z:Not clearly related to any of the other Pigeons on the Gate.
K:G
G2BG dGBG|F2AF dFAF|G2BG dGBG|1 cBAG FGAF:|2 cBAG FGAc||
|:Bdgd BG~G2|ABcd ed~d2|Bdgd BGAB|1 cBAG FGAc:|2 cBAG FGAF||
